X: 716
T: McFadden's favorite
C: anon.
O: Ireland
B: Francis O'Neill: "The Dance Music of Ireland" (1907) no. 716
R: Reel
Z: Transcribed by Frank Nordberg - http://www.musicaviva.com
F: http://www.musicaviva.com/abc/tunes/ireland/oneill-1001/oneill-1001-071
6.abc
m: Tn = (3n/o/n/
m: Tn2 = (3n/o/n/ m/n/
M: C|
L: 1/8
K: G
G2(FG) (3(EFG) DB,|G,A,B,D EA,TA,2|DG({A}G)D EGaf|gedc BdAF|G2BG EGDB,|G,
A,B,D EA,TA,2|DG({A}G)D EGef|
gedc BGG2 H ||Tgfga bgaf|gabg eaaf|gfga bgeg|(3(efg) dc BGG2|Tgfga bgaf|g
abg eaaf|gabf gedc|Baag (3(efg) dB "_D.C." |]
W:
W:
W: From Musica Viva - http://www.musicaviva.com
W: the Internet center for free sheet music downloads.


